actions/24/path-simplify.svg

<?xml version="1.0" encoding="UTF-8" standalone="no"?>
<svg
   width="24"
   height="24"
   version="1.1"
   id="svg9"
   sodipodi:docname="path-simplify.svg"
   inkscape:version="1.2.1 (9c6d41e410, 2022-07-14, custom)"
   xmlns:inkscape="http://www.inkscape.org/namespaces/inkscape"
   xmlns:sodipodi="http://sodipodi.sourceforge.net/DTD/sodipodi-0.dtd"
   xmlns="http://www.w3.org/2000/svg"
   xmlns:svg="http://www.w3.org/2000/svg">
  <sodipodi:namedview
     id="namedview11"
     pagecolor="#000000"
     bordercolor="#000000"
     borderopacity="0.25"
     inkscape:showpageshadow="2"
     inkscape:pageopacity="0"
     inkscape:pagecheckerboard="0"
     inkscape:deskcolor="#d1d1d1"
     showgrid="false"
     inkscape:zoom="33.458333"
     inkscape:cx="11.985056"
     inkscape:cy="11.955168"
     inkscape:window-width="1920"
     inkscape:window-height="1051"
     inkscape:window-x="0"
     inkscape:window-y="29"
     inkscape:window-maximized="1"
     inkscape:current-layer="g7" />
  <defs
     id="defs3">
    <style
       id="current-color-scheme"
       type="text/css">
   .ColorScheme-Text { color:#eeeeec; } .ColorScheme-Highlight { color:#367bf0; } .ColorScheme-NeutralText { color:#ffcc44; } .ColorScheme-PositiveText { color:#3db47e; } .ColorScheme-NegativeText { color:#dd4747; }
  </style>
  </defs>
  <g
     transform="translate(4,4)"
     id="g7">
    <path
       style="fill:currentColor"
       class="ColorScheme-Text"
       d="M 8.2893313,10.477126 8.4915047,10.34466 10.397331,7.8035581 10.424169,7.2998369 10.046088,7 H 5.7859005 L 5.5425467,7.2788876 5.4982073,7.6642763 7.5410292,10.388039 Z M 11,2 C 9.6667,2 8.5527,2.6055 7.5527,3.1055 6.5527,3.6055 5.6667,4 5,4 4.1667,4 3.578,3.7958 3.1973,3.6055 2.8165,3.4151 2.707,3.293 2.707,3.293 1.7646,2.3074 0.39526,3.8093 1.293,4.707 c 0,0 0.3905,0.3779 1.0097,0.6875 C 2.922,5.7042 3.8333,6 5,6 6.3333,6 7.4473,5.3945 8.4473,4.8945 9.4473,4.3945 10.333,4 11,4 c 0.833,0 1.422,0.2042 1.803,0.3945 0.38,0.1904 0.49,0.3125 0.49,0.3125 0.871,0.9118 2.335,-0.4928 1.414,-1.414 0,0 -0.39,-0.3779 -1.01,-0.6875 C 13.078,2.2958 12.167,2 11,2 Z M 2,12 h 12 c 1,0 1,1 1,1 0,0 0,1 -1,1 H 2 C 1,14 1,13 1,13 1,13 1,12 2,12 Z"
       id="path5"
       sodipodi:nodetypes="ccccccccccsssccccsssccccssscsscs" />
  </g>
</svg>

<svg xmlns="http://www.w3.org/2000/svg" width="24" height="24" version="1.1">
 <defs>
  <style id="current-color-scheme" type="text/css">
   .ColorScheme-Text { color:#eeeeec; } .ColorScheme-Highlight { color:#367bf0; } .ColorScheme-NeutralText { color:#ffcc44; } .ColorScheme-PositiveText { color:#3db47e; } .ColorScheme-NegativeText { color:#dd4747; }
  </style>
 </defs>
 <g transform="translate(4,4)">
  <path style="fill:currentColor" class="ColorScheme-Text" d="M 8,11 11,7 H 5 Z M 11,2 C 9.6667,2 8.5527,2.6055 7.5527,3.1055 6.5527,3.6055 5.6667,4 5,4 4.1667,4 3.578,3.7958 3.1973,3.6055 2.8165,3.4151 2.707,3.293 2.707,3.293 1.7646,2.3074 0.39526,3.8093 1.293,4.707 1.293,4.707 1.6835,5.0849 2.3027,5.3945 2.922,5.7042 3.8333,6 5,6 6.3333,6 7.4473,5.3945 8.4473,4.8945 9.4473,4.3945 10.333,4 11,4 11.833,4 12.422,4.2042 12.803,4.3945 13.183,4.5849 13.293,4.707 13.293,4.707 14.164,5.6188 15.628,4.2142 14.707,3.293 14.707,3.293 14.317,2.9151 13.697,2.6055 13.078,2.2958 12.167,2 11,2 Z M 2,12 H 14 C 15,12 15,13 15,13 15,13 15,14 14,14 H 2 C 1,14 1,13 1,13 1,13 1,12 2,12 Z"/>
 </g>
</svg>
